material/.icons/material/thumb-up-outline.svg

<svg xmlns="http://www.w3.org/2000/svg" viewBox="0 0 24 24"><path d="M5 9v12H1V9h4m4 12a2 2 0 01-2-2V9c0-.55.22-1.05.59-1.41L14.17 1l1.06 1.06c.27.27.44.64.44 1.05l-.03.32L14.69 8H21a2 2 0 012 2v2c0 .26-.05.5-.14.73l-3.02 7.05C19.54 20.5 18.83 21 18 21H9m0-2h9.03L21 12v-2h-8.79l1.13-5.32L9 9.03V19z"/></svg>

<?xml version="1.0" encoding="UTF-8"?><!DOCTYPE svg PUBLIC "-//W3C//DTD SVG 1.1//EN" "http://www.w3.org/Graphics/SVG/1.1/DTD/svg11.dtd"><svg xmlns="http://www.w3.org/2000/svg" xmlns:xlink="http://www.w3.org/1999/xlink" version="1.1" id="mdi-thumb-up-outline" width="24" height="24" viewBox="0 0 24 24"><path d="M5,9V21H1V9H5M9,21A2,2 0 0,1 7,19V9C7,8.45 7.22,7.95 7.59,7.59L14.17,1L15.23,2.06C15.5,2.33 15.67,2.7 15.67,3.11L15.64,3.43L14.69,8H21C22.11,8 23,8.9 23,10V12C23,12.26 22.95,12.5 22.86,12.73L19.84,19.78C19.54,20.5 18.83,21 18,21H9M9,19H18.03L21,12V10H12.21L13.34,4.68L9,9.03V19Z" /></svg>
